src/images/logos/facebook-logo.svg

<svg width="20px" height="20px" viewBox="0 0 20 20">
    <path d="M18.8962311,1.77635684e-15 C19.5058145,1.77635684e-15 20,0.494104044 20,1.1038379 L20,1.1038379 L20,18.8960845 C20,19.5057407 19.5057369,20
    18.8962311,20 L18.8962311,20 L13.7997105,20 L13.7997105,12.2548978 L16.3993838,12.2548978 L16.788648,9.23649401 L13.7997105,9.23649401 L13.7997105,7.30943392
    C13.7997105,6.43553638 14.0423798,5.84000404 15.2955374,5.84000404 L16.8938797,5.8393056 L16.8938797,3.13962106 C16.6174525,3.10283681
    15.6686598,3.02065428 14.5648133,3.02065428 C12.2603476,3.02065428 10.682648,4.4273026 10.682648,7.01050369 L10.682648,9.23649401 L8.07630075,9.23649401
    L8.07630075,12.2548978 L10.682648,12.2548978 L10.682648,20 L1.10384647,20 C0.494030274,20 3.55271368e-15,19.5056631 3.55271368e-15,18.8960845
    L3.55271368e-15,18.8960845 L3.55271368e-15,1.1038379 C3.55271368e-15,0.494104044 0.494107878,1.77635684e-15 1.10384647,1.77635684e-15
    L1.10384647,1.77635684e-15 Z" fill="#000" fill-rule="nonzero" stroke-width="0"></path>
</svg>

<svg viewBox="0 0 20 20">
  <path
    d="M18.896 0C19.506 0 20 .494 20 1.104v17.792c0 .61-.494 1.104-1.104 1.104H13.8v-7.745h2.6l.389-3.019h-2.99V7.31c0-.873.243-1.469 1.497-1.469h1.598v-2.7a21.367 21.367 0 00-2.33-.12c-2.304 0-3.881 1.407-3.881 3.99v2.226H8.076v3.019h2.607V20h-9.58C.495 20 0 19.506 0 18.896V1.104C0 .494.494 0 1.104 0z" />
</svg>
